src/assets/images/icons/noSelectedAsset.svg

<svg  viewBox="0 0 120 122" fill="none" xmlns="http://www.w3.org/2000/svg">
<path d="M5.63277 17.9749C7.12357 17.488 7.9393 15.8789 7.45475 14.3809C6.97019 12.8828 5.36885 12.0631 3.87805 12.55C2.38724 13.0369 1.57152 14.646 2.05607 16.1441C2.54063 17.6421 4.14197 18.4618 5.63277 17.9749Z" fill="#E2EBFF"/>
<path d="M11.8286 8.66952C12.8423 8.33842 13.397 7.24422 13.0675 6.22554C12.738 5.20687 11.6491 4.64948 10.6354 4.98058C9.62161 5.31167 9.06691 6.40588 9.39641 7.42455C9.7259 8.44322 10.8148 9.00061 11.8286 8.66952Z" fill="#E2EBFF"/>
<path d="M104.878 18.4595C106.637 16.8443 106.76 14.102 105.153 12.3345C103.545 10.567 100.816 10.4435 99.0574 12.0588C97.2985 13.674 97.1756 16.4163 98.783 18.1838C100.39 19.9513 103.119 20.0747 104.878 18.4595Z" fill="#E2EBFF"/>
<path d="M118.659 10.5554C119.4 9.87532 119.451 8.72068 118.775 7.97645C118.098 7.23223 116.949 7.18025 116.208 7.86036C115.468 8.54046 115.416 9.69511 116.093 10.4393C116.769 11.1836 117.918 11.2355 118.659 10.5554Z" fill="#E2EBFF"/>
<path d="M10.6196 111.898C11.3602 111.218 11.412 110.063 10.7351 109.319C10.0583 108.575 8.90927 108.523 8.16865 109.203C7.42803 109.883 7.3763 111.038 8.05312 111.782C8.72993 112.526 9.87899 112.578 10.6196 111.898Z" fill="#E2EBFF"/>
<path d="M56.4277 117.93C87.5919 117.93 112.855 92.5441 112.855 61.2284C112.855 29.9127 87.5919 4.52637 56.4277 4.52637C25.2636 4.52637 0 29.9127 0 61.2284C0 92.5441 25.2636 117.93 56.4277 117.93Z" fill="#EAEEF9"/>
<path d="M21.6854 54.0406L14.3055 22.5521C13.7378 20.1562 15.2138 17.8745 17.4845 17.304L66.1917 5.66699L93.7811 24.4916L111.039 93.7434C111.606 96.1393 110.13 98.421 107.86 98.9915L40.646 114.964C38.2617 115.534 35.991 114.051 35.4233 111.769L21.1177 51.6447" fill="#C7D9FF"/>
<path d="M106.724 51.8721L80.7245 118.272C79.8162 120.553 77.3184 121.58 75.0476 120.668L11.1265 94.4272C8.85576 93.5144 7.83393 91.0045 8.74222 88.7227L43.1438 3.8408C44.0521 1.55903 46.5499 0.532229 48.8207 1.44494L95.2572 20.4977L106.724 51.8721Z" fill="#C7D9FF"/>
<path d="M100.025 105.494C100.025 107.89 98.0952 109.83 95.711 109.83H26.6807C24.2964 109.83 22.3663 107.89 22.3663 105.494V13.767C22.3663 11.3711 24.2964 9.43164 26.6807 9.43164H76.7503L99.2306 34.1889L99.6848 75.7171L100.025 105.494Z" fill="white"/>
<path d="M21.6854 54.0406L14.3055 22.5521C13.7378 20.1562 15.2138 17.8745 17.4845 17.304L66.1918 5.66699L93.7812 24.4916L111.039 93.7434C111.606 96.1393 110.13 98.421 107.86 98.9915L40.646 114.964C38.2617 115.534 35.991 114.051 35.4233 111.769L21.1177 51.6447" fill="#D5DDEA"/>
<path d="M106.724 51.8721L80.7245 118.272C79.8162 120.553 77.3184 121.58 75.0476 120.668L11.1265 94.4272C8.85576 93.5144 7.83393 91.0045 8.74222 88.7227L43.1438 3.8408C44.0521 1.55903 46.5499 0.532229 48.8207 1.44494L95.2572 20.4977L106.724 51.8721Z" fill="#D5DDEA"/>
<path d="M92.6454 26.7734L87.7634 38.6387C86.7415 41.1486 88.104 44.229 90.6018 45.2558L106.724 51.8729" stroke="#6F7590" stroke-miterlimit="10" stroke-linecap="round" stroke-linejoin="round"/>
<path d="M100.025 105.494C100.025 107.89 98.0952 109.83 95.711 109.83H26.6807C24.2964 109.83 22.3663 107.89 22.3663 105.494V13.767C22.3663 11.3711 24.2964 9.43164 26.6807 9.43164H76.7503L99.2306 34.1889L99.6848 75.7171L100.025 105.494Z" fill="white"/>
<path d="M76.751 9.43164V29.0549C76.751 31.793 79.1353 34.0748 81.8602 34.0748H99.2313" fill="#D5DDEA"/>
<path d="M76.751 19.5859V29.0553C76.751 31.7934 79.1353 34.0752 81.8602 34.0752H99.2313" stroke="#6F7590" stroke-miterlimit="10" stroke-linecap="round" stroke-linejoin="round"/>
<path d="M88.87 81H28.1301C27.5651 81 27.0001 80.625 27.0001 80C27.0001 79.5 27.4238 79 28.1301 79H88.87C89.435 79 90.0001 79.375 90.0001 80C90.0001 80.5 89.435 81 88.87 81Z" fill="#C0D6FF"/>
<path d="M75.1211 56H27.879C27.4395 56 27.0001 55.625 27.0001 55C27.0001 54.5 27.3297 54 27.879 54H75.1211C75.5606 54 76.0001 54.375 76.0001 55C76.0001 55.5 75.5606 56 75.1211 56Z" fill="#C0D6FF"/>
<path d="M88.87 87H28.1301C27.5651 87 27.0001 86.625 27.0001 86C27.0001 85.5 27.4238 85 28.1301 85H88.87C89.435 85 90.0001 85.375 90.0001 86C90.0001 86.625 89.435 87 88.87 87Z" fill="#C0D6FF"/>
<path d="M68.2467 62H27.7534C27.3767 62 27.0001 61.625 27.0001 61C27.0001 60.5 27.2826 60 27.7534 60H68.2467C68.6234 60 69.0001 60.375 69.0001 61C69.0001 61.625 68.6234 62 68.2467 62Z" fill="#C0D6FF"/>
<path d="M52.5337 68H27.4664C27.2332 68 27.0001 67.625 27.0001 67C27.0001 66.5 27.1749 66 27.4664 66H52.5337C52.7669 66 53.0001 66.375 53.0001 67C53.0001 67.625 52.7669 68 52.5337 68Z" fill="#C0D6FF"/>
<path d="M74.0327 27.2992H58.4623C58.0328 27.2992 57.6033 26.977 57.6033 26.4401C57.6033 26.0106 57.9254 25.5811 58.4623 25.5811H74.0327C74.4622 25.5811 74.8917 25.9032 74.8917 26.4401C74.7843 26.8696 74.4622 27.2992 74.0327 27.2992Z" fill="#C0D6FF"/>
<path d="M48.9059 31.9211C48.7985 26.0117 43.9664 21.1768 37.953 21.1768H37.8456C31.8322 21.1768 27.0001 26.1192 27.0001 32.136C27.0001 38.1529 31.9396 43.0953 37.953 43.0953C41.2818 43.0953 44.1811 41.5911 46.2214 39.3348C47.9395 37.4008 48.9059 34.9296 48.9059 32.136C48.9059 32.0286 48.9059 31.9211 48.9059 31.9211ZM37.953 39.4422C33.8725 39.4422 30.5437 36.1114 30.5437 32.0286C30.5437 27.9457 33.8725 24.615 37.953 24.615H38.0604C42.1409 24.615 45.3623 27.8383 45.4697 31.8137C45.4697 31.9211 45.4697 31.9211 45.4697 32.0286C45.4697 33.8551 44.8254 35.5742 43.6442 36.8636C42.1409 38.4752 40.208 39.4422 37.953 39.4422Z" fill="#C0D6FF"/>
<path d="M48.9064 31.9211H45.3628C45.2554 27.9457 42.034 24.7224 37.9535 24.7224H37.8461V21.1768H37.9535C43.9669 21.1768 48.799 25.9043 48.9064 31.9211Z" fill="url(#paint0_linear_2825_165689)"/>
<path d="M48.9066 32.0283C48.9066 34.8219 47.9402 37.2931 46.222 39.2271L43.5375 36.9708C44.7187 35.6814 45.363 33.9623 45.363 32.1358C45.363 32.0283 45.363 32.0283 45.363 31.9209H48.9066V32.0283Z" fill="url(#paint1_linear_2825_165689)"/>
<path d="M54.7046 27.6226C55.3569 27.6226 55.8858 27.0934 55.8858 26.4407C55.8858 25.7879 55.3569 25.2588 54.7046 25.2588C54.0522 25.2588 53.5234 25.7879 53.5234 26.4407C53.5234 27.0934 54.0522 27.6226 54.7046 27.6226Z" fill="url(#paint2_linear_2825_165689)"/>
<path d="M74.0327 32.2425H58.4623C58.0328 32.2425 57.6033 31.9204 57.6033 31.3835C57.6033 30.9539 57.9254 30.5244 58.4623 30.5244H74.0327C74.4622 30.5244 74.8917 30.8466 74.8917 31.3835C74.7843 31.813 74.4622 32.2425 74.0327 32.2425Z" fill="#C0D6FF"/>
<path d="M54.7046 32.5659C55.3569 32.5659 55.8858 32.0368 55.8858 31.384C55.8858 30.7313 55.3569 30.2021 54.7046 30.2021C54.0522 30.2021 53.5234 30.7313 53.5234 31.384C53.5234 32.0368 54.0522 32.5659 54.7046 32.5659Z" fill="url(#paint3_linear_2825_165689)"/>
<path d="M74.0327 37.1849H58.4623C58.0328 37.1849 57.6033 36.8628 57.6033 36.3259C57.6033 35.8963 57.9254 35.4668 58.4623 35.4668H74.0327C74.4622 35.4668 74.8917 35.7889 74.8917 36.3259C74.7843 36.7554 74.4622 37.1849 74.0327 37.1849Z" fill="#C0D6FF"/>
<path d="M54.7046 37.5073C55.3569 37.5073 55.8858 36.9782 55.8858 36.3254C55.8858 35.6727 55.3569 35.1436 54.7046 35.1436C54.0522 35.1436 53.5234 35.6727 53.5234 36.3254C53.5234 36.9782 54.0522 37.5073 54.7046 37.5073Z" fill="url(#paint4_linear_2825_165689)"/>
<path d="M22.0265 55.7517L21.1182 51.6445" stroke="#182052" stroke-miterlimit="10" stroke-linecap="round" stroke-linejoin="round"/>
<path d="M53.5894 111.998L40.5327 115.078C38.6026 115.535 36.6725 114.622 35.7642 112.911" stroke="#6F7590" stroke-miterlimit="10" stroke-linecap="round" stroke-linejoin="round"/>
<path d="M99.3448 47.0811L107.5 79.5906" stroke="#6F7590" stroke-miterlimit="10" stroke-linecap="round" stroke-linejoin="round"/>
<path d="M61.7637 6.69379L66.1916 5.66699L71.6414 9.31783" stroke="#6F7590" stroke-miterlimit="10" stroke-linecap="round" stroke-linejoin="round"/>
<path d="M21.6854 54.0402L14.3055 22.5518C13.7378 20.1559 15.2138 17.8742 17.4845 17.3037" stroke="#6F7590" stroke-miterlimit="10" stroke-linecap="round" stroke-linejoin="round"/>
<path d="M14.3055 95.797L11.1265 94.428C8.85573 93.5152 7.8339 91.0053 8.74219 88.7235L22.3666 55.0674" stroke="#6F7590" stroke-miterlimit="10" stroke-linecap="round" stroke-linejoin="round"/>
<path d="M84.0167 109.83L80.7242 118.273C79.8159 120.554 77.3181 121.581 75.0473 120.668L48.5933 109.83" stroke="#6F7590" stroke-miterlimit="10" stroke-linecap="round" stroke-linejoin="round"/>
<path d="M81.8599 14.9082L95.1437 20.3845L106.724 51.8729L102.978 61.4564" stroke="#6F7590" stroke-miterlimit="10" stroke-linecap="round" stroke-linejoin="round"/>
<path d="M40.8732 9.31786L43.144 3.72752C44.0523 1.44574 46.5501 0.418947 48.8208 1.33166L67.6679 9.08968" stroke="#6F7590" stroke-miterlimit="10" stroke-linecap="round" stroke-linejoin="round"/>
<path d="M40.8727 9.31836H76.7503L99.2306 34.0756L99.6847 75.6038L100.025 105.495C100.025 107.891 98.0952 109.83 95.7109 109.83H26.6806C24.2964 109.83 22.3662 107.891 22.3662 105.495V13.7678C22.3662 11.372 24.2964 9.43245 26.6806 9.43245H29.8597" stroke="#6F7590" stroke-miterlimit="10" stroke-linecap="round" stroke-linejoin="round"/>
<path d="M113.991 96.1394C113.991 98.8776 113.537 101.388 112.515 103.783C110.244 109.716 105.362 114.28 99.3448 116.333C97.3011 117.018 95.1439 117.36 92.8732 117.36C81.1789 117.36 71.7554 107.891 71.7554 96.1394C71.7554 84.3883 81.1789 74.9189 92.8732 74.9189C104.567 74.9189 113.991 84.5024 113.991 96.1394Z" fill="url(#paint5_linear_2825_165689)"/>
<path d="M77.6595 109.945C73.9128 106.066 71.8691 100.818 71.8691 94.9991C71.8691 86.5565 76.7512 79.3689 83.7905 75.9463" stroke="#6F7590" stroke-miterlimit="10" stroke-linecap="round" stroke-linejoin="round"/>
<path d="M93.2141 73.7783C104.681 73.8924 113.991 83.3618 113.991 94.9988C113.991 97.7369 113.537 100.247 112.515 102.643C110.245 108.575 105.362 113.139 99.345 115.192C97.3014 115.877 95.1442 116.219 92.8735 116.219C89.6944 116.219 86.6289 115.535 83.9041 114.166" stroke="#6F7590" stroke-miterlimit="10" stroke-linecap="round" stroke-linejoin="round"/>
<path d="M89.4673 74.1201C89.5808 74.1201 89.5808 74.1201 89.6944 74.1201" stroke="#6F7590" stroke-miterlimit="10" stroke-linecap="round" stroke-linejoin="round"/>
<path d="M92.9993 105C94.7215 105 95.1046 103.759 94.977 102.303L94.9767 93.5643C94.9129 92.7012 94.0199 92 92.9994 92C91.9788 92 91.0858 92.7012 91.022 93.5643L91.022 102.303C90.8944 103.813 91.2772 105 92.9993 105Z" fill="white"/>
<path d="M92.9995 90C94.1106 90 94.9995 89.1111 94.9995 88C94.9995 86.8889 94.1106 86 92.9995 86C91.8884 86 90.9995 86.8889 90.9995 88C90.9995 89.1111 91.8884 90 92.9995 90Z" fill="white"/>
<defs>
<linearGradient id="paint0_linear_2825_165689" x1="37.8493" y1="26.5541" x2="48.9118" y2="26.5541" gradientUnits="userSpaceOnUse">
<stop stop-color="#83A6FF"/>
<stop offset="1" stop-color="#5277D7"/>
</linearGradient>
<linearGradient id="paint1_linear_2825_165689" x1="43.539" y1="35.5775" x2="48.9092" y2="35.5775" gradientUnits="userSpaceOnUse">
<stop stop-color="#83A6FF"/>
<stop offset="1" stop-color="#5277D7"/>
</linearGradient>
<linearGradient id="paint2_linear_2825_165689" x1="53.5241" y1="26.4418" x2="55.8869" y2="26.4418" gradientUnits="userSpaceOnUse">
<stop stop-color="#83A6FF"/>
<stop offset="1" stop-color="#5277D7"/>
</linearGradient>
<linearGradient id="paint3_linear_2825_165689" x1="53.5241" y1="31.3852" x2="55.8869" y2="31.3852" gradientUnits="userSpaceOnUse">
<stop stop-color="#83A6FF"/>
<stop offset="1" stop-color="#5277D7"/>
</linearGradient>
<linearGradient id="paint4_linear_2825_165689" x1="53.5241" y1="36.3266" x2="55.8869" y2="36.3266" gradientUnits="userSpaceOnUse">
<stop stop-color="#83A6FF"/>
<stop offset="1" stop-color="#5277D7"/>
</linearGradient>
<linearGradient id="paint5_linear_2825_165689" x1="74.2273" y1="86.0334" x2="111.71" y2="107.044" gradientUnits="userSpaceOnUse">
<stop stop-color="#83A6FF"/>
<stop offset="0.994956" stop-color="#5277D7"/>
</linearGradient>
</defs>
</svg>

<svg width="120" height="122" fill="none" xmlns="http://www.w3.org/2000/svg"><path d="M5.633 17.975a2.855 2.855 0 0 0 1.822-3.594 2.835 2.835 0 0 0-3.577-1.831 2.855 2.855 0 0 0-1.822 3.594 2.836 2.836 0 0 0 3.577 1.83Zm6.196-9.305a1.941 1.941 0 0 0 1.239-2.444 1.928 1.928 0 0 0-2.433-1.245 1.941 1.941 0 0 0-1.239 2.444A1.928 1.928 0 0 0 11.83 8.67Zm93.049 9.79a4.35 4.35 0 0 0 .275-6.126 4.3 4.3 0 0 0-6.096-.275 4.35 4.35 0 0 0-.274 6.125 4.3 4.3 0 0 0 6.095.275Zm13.781-7.905c.741-.68.792-1.834.116-2.579a1.811 1.811 0 0 0-2.567-.116 1.832 1.832 0 0 0-.115 2.58 1.81 1.81 0 0 0 2.566.115ZM10.62 111.898c.74-.68.792-1.835.115-2.579a1.81 1.81 0 0 0-2.566-.116 1.832 1.832 0 0 0-.116 2.579 1.81 1.81 0 0 0 2.567.116Z" fill="#E2EBFF"/><path d="M56.428 117.93c31.164 0 56.427-25.386 56.427-56.702 0-31.315-25.263-56.702-56.427-56.702C25.264 4.526 0 29.913 0 61.228c0 31.316 25.264 56.702 56.428 56.702Z" fill="#EAEEF9"/><path d="m21.685 54.04-7.38-31.488a4.352 4.352 0 0 1 3.18-5.248L66.192 5.667l27.59 18.825 17.257 69.251a4.353 4.353 0 0 1-3.179 5.249l-67.214 15.972c-2.384.57-4.655-.913-5.223-3.195L21.118 51.645" fill="#C7D9FF"/><path d="m106.724 51.872-26 66.4c-.908 2.281-3.406 3.308-5.676 2.396l-63.922-26.24c-2.27-.914-3.292-3.424-2.384-5.705L43.144 3.84c.908-2.282 3.406-3.309 5.677-2.396l46.436 19.053 11.467 31.374Z" fill="#C7D9FF"/><path d="M100.025 105.494c0 2.396-1.93 4.336-4.314 4.336h-69.03c-2.385 0-4.315-1.94-4.315-4.336V13.767c0-2.396 1.93-4.335 4.315-4.335h50.07l22.48 24.757.454 41.528.34 29.777Z" fill="#fff"/><path d="m21.685 54.04-7.38-31.488a4.352 4.352 0 0 1 3.18-5.248L66.192 5.667l27.59 18.825 17.257 69.251a4.353 4.353 0 0 1-3.179 5.249l-67.214 15.972c-2.384.57-4.655-.913-5.223-3.195L21.118 51.645" fill="#D5DDEA"/><path d="m106.724 51.872-26 66.4c-.908 2.281-3.406 3.308-5.676 2.396l-63.922-26.24c-2.27-.914-3.292-3.424-2.384-5.705L43.144 3.84c.908-2.282 3.406-3.309 5.677-2.396l46.436 19.053 11.467 31.374Z" fill="#D5DDEA"/><path d="M92.645 26.773 87.763 38.64c-1.022 2.51.341 5.59 2.839 6.617l16.122 6.617" stroke="#6F7590" stroke-miterlimit="10" stroke-linecap="round" stroke-linejoin="round"/><path d="M100.025 105.494c0 2.396-1.93 4.336-4.314 4.336h-69.03c-2.385 0-4.315-1.94-4.315-4.336V13.767c0-2.396 1.93-4.335 4.315-4.335h50.07l22.48 24.757.454 41.528.34 29.777Z" fill="#fff"/><path d="M76.751 9.432v19.623c0 2.738 2.384 5.02 5.11 5.02h17.37" fill="#D5DDEA"/><path d="M76.751 19.586v9.47c0 2.737 2.384 5.02 5.11 5.02h17.37" stroke="#6F7590" stroke-miterlimit="10" stroke-linecap="round" stroke-linejoin="round"/><path d="M88.87 81H28.13c-.565 0-1.13-.375-1.13-1 0-.5.424-1 1.13-1h60.74c.565 0 1.13.375 1.13 1 0 .5-.565 1-1.13 1ZM75.121 56H27.88c-.44 0-.879-.375-.879-1 0-.5.33-1 .879-1h47.242c.44 0 .88.375.88 1 0 .5-.44 1-.88 1ZM88.87 87H28.13c-.565 0-1.13-.375-1.13-1 0-.5.424-1 1.13-1h60.74c.565 0 1.13.375 1.13 1s-.565 1-1.13 1ZM68.247 62H27.753c-.376 0-.753-.375-.753-1 0-.5.283-1 .753-1h40.494c.376 0 .753.375.753 1s-.377 1-.753 1Zm-15.713 6H27.466c-.233 0-.466-.375-.466-1 0-.5.175-1 .466-1h25.068c.233 0 .466.375.466 1s-.233 1-.466 1Zm21.499-40.7h-15.57a.847.847 0 0 1-.86-.86c0-.43.322-.859.86-.859h15.57c.43 0 .859.322.859.86-.108.429-.43.858-.86.858Zm-25.127 4.621c-.108-5.91-4.94-10.744-10.953-10.744h-.107C31.832 21.177 27 26.119 27 32.136c0 6.017 4.94 10.96 10.953 10.96 3.329 0 6.228-1.505 8.268-3.761 1.719-1.934 2.685-4.405 2.685-7.199v-.215Zm-10.953 7.521c-4.08 0-7.41-3.33-7.41-7.413s3.33-7.414 7.41-7.414h.107a7.383 7.383 0 0 1 7.41 7.199v.215c0 1.826-.645 3.545-1.826 4.835-1.503 1.611-3.436 2.578-5.691 2.578Z" fill="#C0D6FF"/><path d="M48.906 31.921h-3.543a7.383 7.383 0 0 0-7.41-7.199h-.107v-3.545h.108c6.013 0 10.845 4.727 10.952 10.744Z" fill="url(#noSelectedAsset__a)"/><path d="M48.907 32.028c0 2.794-.967 5.265-2.685 7.2l-2.684-2.257c1.18-1.29 1.825-3.009 1.825-4.835v-.215h3.544v.107Z" fill="url(#noSelectedAsset__b)"/><path d="M54.705 27.623a1.182 1.182 0 1 0-.001-2.364 1.182 1.182 0 0 0 0 2.364Z" fill="url(#noSelectedAsset__c)"/><path d="M74.033 32.242h-15.57a.847.847 0 0 1-.86-.858c0-.43.322-.86.86-.86h15.57c.43 0 .859.323.859.86-.108.429-.43.858-.86.858Z" fill="#C0D6FF"/><path d="M54.705 32.566a1.182 1.182 0 1 0-.001-2.363 1.182 1.182 0 0 0 0 2.363Z" fill="url(#noSelectedAsset__d)"/><path d="M74.033 37.185h-15.57a.847.847 0 0 1-.86-.86c0-.429.322-.858.86-.858h15.57c.43 0 .859.322.859.859-.108.43-.43.859-.86.859Z" fill="#C0D6FF"/><path d="M54.705 37.507a1.182 1.182 0 1 0-.001-2.363 1.182 1.182 0 0 0 0 2.363Z" fill="url(#noSelectedAsset__e)"/><path d="m22.026 55.752-.908-4.108" stroke="#182052" stroke-miterlimit="10" stroke-linecap="round" stroke-linejoin="round"/><path d="m53.59 111.998-13.057 3.08a4.265 4.265 0 0 1-4.769-2.167m63.581-65.83 8.155 32.51M61.764 6.694l4.428-1.027 5.45 3.65M21.685 54.04l-7.38-31.488a4.352 4.352 0 0 1 3.18-5.248m-3.179 78.493-3.18-1.369c-2.27-.913-3.292-3.423-2.384-5.704l13.625-33.657m61.65 54.763-3.293 8.443c-.908 2.281-3.406 3.308-5.677 2.395L48.593 109.83M81.86 14.908l13.284 5.476 11.58 31.489-3.746 9.583" stroke="#6F7590" stroke-miterlimit="10" stroke-linecap="round" stroke-linejoin="round"/><path d="m40.873 9.318 2.271-5.59c.908-2.282 3.406-3.31 5.677-2.396L67.668 9.09m-26.795.228H76.75l22.48 24.758.455 41.528.34 29.891c0 2.396-1.93 4.335-4.314 4.335H26.68c-2.385 0-4.315-1.939-4.315-4.335V13.768c0-2.396 1.93-4.336 4.315-4.336h3.179" stroke="#6F7590" stroke-miterlimit="10" stroke-linecap="round" stroke-linejoin="round"/><path d="M113.991 96.14c0 2.738-.454 5.248-1.476 7.643-2.271 5.933-7.153 10.497-13.17 12.55-2.044.685-4.201 1.027-6.472 1.027-11.694 0-21.118-9.469-21.118-21.22 0-11.752 9.424-21.221 21.118-21.221 11.694 0 21.118 9.583 21.118 21.22Z" fill="url(#noSelectedAsset__f)"/><path d="M77.66 109.945c-3.747-3.879-5.79-9.127-5.79-14.946 0-8.442 4.881-15.63 11.92-19.053m9.424-2.168c11.467.114 20.777 9.584 20.777 21.22 0 2.739-.454 5.249-1.476 7.645-2.27 5.932-7.153 10.496-13.17 12.549-2.044.685-4.2 1.027-6.471 1.027-3.18 0-6.245-.684-8.97-2.053m5.563-40.046h.227" stroke="#6F7590" stroke-miterlimit="10" stroke-linecap="round" stroke-linejoin="round"/><path d="M93 105c1.722 0 2.105-1.241 1.977-2.697v-8.739C94.913 92.701 94.02 92 92.999 92c-1.02 0-1.913.701-1.977 1.564v8.739c-.128 1.51.255 2.697 1.977 2.697Zm0-15c1.11 0 2-.889 2-2s-.89-2-2-2c-1.112 0-2 .889-2 2s.888 2 2 2Z" fill="#fff"/><defs><linearGradient id="noSelectedAsset__a" x1="37.849" y1="26.554" x2="48.912" y2="26.554" gradientUnits="userSpaceOnUse"><stop stop-color="#83A6FF"/><stop offset="1" stop-color="#5277D7"/></linearGradient><linearGradient id="noSelectedAsset__b" x1="43.539" y1="35.578" x2="48.909" y2="35.578" gradientUnits="userSpaceOnUse"><stop stop-color="#83A6FF"/><stop offset="1" stop-color="#5277D7"/></linearGradient><linearGradient id="noSelectedAsset__c" x1="53.524" y1="26.442" x2="55.887" y2="26.442" gradientUnits="userSpaceOnUse"><stop stop-color="#83A6FF"/><stop offset="1" stop-color="#5277D7"/></linearGradient><linearGradient id="noSelectedAsset__d" x1="53.524" y1="31.385" x2="55.887" y2="31.385" gradientUnits="userSpaceOnUse"><stop stop-color="#83A6FF"/><stop offset="1" stop-color="#5277D7"/></linearGradient><linearGradient id="noSelectedAsset__e" x1="53.524" y1="36.327" x2="55.887" y2="36.327" gradientUnits="userSpaceOnUse"><stop stop-color="#83A6FF"/><stop offset="1" stop-color="#5277D7"/></linearGradient><linearGradient id="noSelectedAsset__f" x1="74.227" y1="86.033" x2="111.71" y2="107.044" gradientUnits="userSpaceOnUse"><stop stop-color="#83A6FF"/><stop offset=".995" stop-color="#5277D7"/></linearGradient></defs></svg>
